X: 3197
Q: "Highland Schottische."
M: C
L: 1/16
K: A
|:\
(vEA3) A4 (cA3) A4 | E3FE3D (CA,3) A,4 |\
(FB3) B4 (dB3) B4 | F3GF3E (DB,3) B,4 |\
(EA3) A4 (cA3) A4 | E3FE3D (CA,3) A,3C |\
|:\
(ce3) e4 (ae3) e4 | c3de3d (cA3) A4 |\
(df3) f4 (bf3) f4 | d3ef3e (dB3) B4 |\
(ce3) e4 (ae3) e4 | c3de3d (cA3) A3c |\
d3ef3g a3ec3d | e3fe3d (cA3) A4 :|[K:=f][K:D]
|:\
f4 e3d f4 e3d | (Bd3) A3F E4 A3G |\
f3ed3A Bd3 Ad3 |[1 F4 (E3D) D4 A3G :|\
[2 F4 (E3D) D4-"_D.C."D2z2 |]


